X:335
T: John McNeill's
S: "Sully's Irish Music Book"
Z: B.Black
L: 1/8
M: 4/4
R: reel
K: A
A,2 CE FECE|AECE FECB,|A,2 CE FECE|A,B,CA, B,2 CB,|
A,2 CE FECE|AECE FECE|DFAF CEAE|DCB,A, B,CDE :|
eA A2 eAfA|eA A2 efga|eA A2 =gfge|dcdB =GABd|
eA A2 eAfA|eA A2 ef =g2|agfe fedc|1 BAGA Bcdf :|2\
BAGF EDCB,||
